9-regular-expressions/02-regexp-character-classes/love-html5-classes.svg

<?xml version="1.0" encoding="UTF-8"?>
<svg width="236px" height="38px" viewBox="0 0 236 38" version="1.1" xmlns="http://www.w3.org/2000/svg" xmlns:xlink="http://www.w3.org/1999/xlink">
    <!-- Generator: sketchtool 61.2 (101010) - https://sketch.com -->
    <title>love-html5-classes.svg</title>
    <desc>Created with sketchtool.</desc>
    <g id="regexp" stroke="none" stroke-width="1" fill="none" fill-rule="evenodd">
        <g id="love-html5-classes.svg" fill-rule="nonzero">
            <path d="M11,19 L21.5379645,19 L21.5379645,20.6605891 L17.1691001,20.6605891 L17.1691001,33.0476858 L21.5379645,33.0476858 L21.5379645,34.7082749 L11,34.7082749 L11,33.0476858 L15.3469104,33.0476858 L15.3469104,20.6605891 L11,20.6605891 L11,19 Z M47.7877414,19 L51.4321208,19 L51.4321208,30.9382889 C51.4321208,31.8508695 51.5821389,32.4941543 51.8821797,32.8681627 C52.1822205,33.2421711 52.6249569,33.4291725 53.2104023,33.4291725 C53.6202141,33.4291725 54.0117248,33.3543719 54.3849463,33.2047686 C54.7581677,33.0551652 55.1716323,32.8008433 55.6253525,32.4417952 L56.4156999,33.6760168 C56.1815217,33.8854615 55.9253932,34.0724629 55.6473066,34.2370266 C55.36922,34.4015904 55.0838197,34.5399714 54.791097,34.6521739 C54.4983743,34.7643764 54.205656,34.8503971 53.9129333,34.9102384 C53.6202106,34.9700798 53.3494461,35 53.1006318,35 C52.5590949,35 52.0761096,34.9289395 51.6516617,34.7868163 C51.2272138,34.6446931 50.8722929,34.4165514 50.5868882,34.1023843 C50.3014836,33.7882172 50.0856038,33.3730741 49.9392425,32.8569425 C49.7928811,32.3408109 49.7197016,31.7012661 49.7197016,30.9382889 L49.7197016,20.5035063 L47.7877414,20.5035063 L47.7877414,19 Z M64.1728126,29.0981767 C64.1728126,27.287976 64.633844,25.8555452 65.5559205,24.8008415 C66.477997,23.7461378 67.7952294,23.2187938 69.5076572,23.2187938 C70.4297337,23.2187938 71.2237321,23.372135 71.8896762,23.6788219 C72.5556204,23.9855088 73.1081262,24.4006519 73.5472102,24.9242637 C73.9862943,25.4478755 74.3119434,26.0687201 74.5241674,26.7868163 C74.7363913,27.5049124 74.8425017,28.2753582 74.8425017,29.0981767 C74.8425017,29.9957969 74.7254144,30.807383 74.4912362,31.5329593 C74.2570581,32.2585357 73.913114,32.8756403 73.4593939,33.3842917 C73.0056737,33.8929432 72.4458499,34.2856461 71.7799058,34.5624123 C71.1139616,34.8391786 70.356553,34.9775596 69.5076572,34.9775596 C68.6002168,34.9775596 67.8098774,34.8242185 67.1366151,34.5175316 C66.4633529,34.2108447 65.9071881,33.7957015 65.4681041,33.2720898 C65.02902,32.748478 64.7033709,32.1276333 64.491147,31.4095372 C64.278923,30.691441 64.1728126,29.9209952 64.1728126,29.0981767 Z M65.9950023,29.0981767 C65.9950023,29.6217885 66.057205,30.1453924 66.1816121,30.6690042 C66.3060193,31.192616 66.5072631,31.6638595 66.7853497,32.0827489 C67.0634362,32.5016384 67.4256751,32.8382409 67.8720772,33.0925666 C68.3184794,33.3468923 68.8636672,33.4740533 69.5076572,33.4740533 C70.678548,33.4740533 71.5603619,33.1037905 72.1531253,32.3632539 C72.7458888,31.6227172 73.0422661,30.534369 73.0422661,29.0981767 C73.0422661,28.5596046 72.9800635,28.0322606 72.8556563,27.516129 C72.7312492,26.9999974 72.5263463,26.5324939 72.2409417,26.1136045 C71.9555371,25.6947151 71.5896392,25.3581125 71.1432371,25.1037868 C70.696835,24.8494611 70.1516471,24.7223001 69.5076572,24.7223001 C68.3367664,24.7223001 67.4586114,25.0888229 66.873166,25.8218794 C66.2877206,26.5549359 65.9950023,27.6470241 65.9950023,29.0981767 Z M87.2977903,32.5315568 L87.5392853,32.5315568 L90.9860779,23.4880785 L92.896084,23.4880785 L88.2637704,34.7082749 L86.3318102,34.7082749 L81.6116803,23.4880785 L83.6314568,23.4880785 L87.2977903,32.5315568 Z M110.027594,33.2945302 C109.764144,33.5338955 109.453131,33.7582972 109.094545,33.9677419 C108.73596,34.1771866 108.344449,34.356708 107.920001,34.5063114 C107.495554,34.6559147 107.052817,34.7718556 106.591779,34.8541374 C106.130741,34.9364193 105.66605,34.9775596 105.197694,34.9775596 C104.319526,34.9775596 103.543822,34.8391786 102.87056,34.5624123 C102.197298,34.2856461 101.633815,33.8892031 101.180095,33.3730715 C100.726375,32.8569399 100.382431,32.2398353 100.148253,31.5217391 C99.9140744,30.803643 99.7969871,29.9957969 99.7969871,29.0981767 C99.7969871,28.1556755 99.9250514,27.3179092 100.181184,26.5848527 C100.437316,25.8517962 100.806873,25.2384316 101.289865,24.7447405 C101.772858,24.2510494 102.358294,23.8733066 103.046193,23.6115007 C103.734091,23.3496948 104.502477,23.2187938 105.351373,23.2187938 C105.96609,23.2187938 106.573481,23.3010744 107.173562,23.4656381 C107.773644,23.6302019 108.304196,23.9406242 108.765234,24.3969144 C109.226272,24.8532047 109.581193,25.4815294 109.830007,26.2819074 C110.078822,27.0822854 110.166637,28.1182732 110.093457,29.3899018 L101.597223,29.3899018 C101.597223,30.7363321 101.952144,31.7423997 102.661996,32.4081346 C103.371849,33.0738696 104.319524,33.4067321 105.505051,33.4067321 C105.900227,33.4067321 106.291738,33.3581118 106.679595,33.2608696 C107.067453,33.1636274 107.43701,33.0476865 107.788277,32.9130435 C108.139544,32.7784004 108.450557,32.6287993 108.721326,32.4642356 C108.992094,32.2996719 109.200656,32.1500708 109.347017,32.0154278 L110.027594,33.2945302 Z M105.395281,24.6998597 C104.912288,24.6998597 104.454916,24.7522201 104.02315,24.8569425 C103.591384,24.9616649 103.21085,25.1374462 102.881537,25.3842917 C102.552224,25.6311373 102.28146,25.9527797 102.069236,26.3492286 C101.857012,26.7456775 101.72163,27.2356212 101.663085,27.8190743 L108.490808,27.8190743 C108.417627,26.8316921 108.106614,26.0649864 107.557759,25.5189341 C107.008904,24.9728818 106.288085,24.6998597 105.395281,24.6998597 Z M143.93935,27.5049088 L137.045764,27.5049088 L137.045764,34.7082749 L135.223575,34.7082749 L135.223575,19 L137.045764,19 L137.045764,25.8443198 L143.93935,25.8443198 L143.93935,19 L145.761539,19 L145.761539,34.7082749 L143.93935,34.7082749 L143.93935,27.5049088 Z M152.530718,19 L163.946846,19 L163.946846,23.1065919 L162.322243,23.1065919 L162.322243,20.6605891 L159.1389,20.6605891 L159.1389,33.0476858 L161.55385,33.0476858 L161.55385,34.7082749 L154.90176,34.7082749 L154.90176,33.0476858 L157.31671,33.0476858 L157.31671,20.6605891 L154.155321,20.6605891 L154.155321,23.1065919 L152.530718,23.1065919 L152.530718,19 Z M179.4318,24.2734923 L179.65134,22.141655 L179.54157,22.141655 L178.487774,24.0715288 L176.248456,27.9088359 L175.699604,27.9088359 L173.350516,24.0490884 L172.340628,22.141655 L172.230857,22.141655 L172.494306,24.2510519 L172.494306,34.7082749 L170.716025,34.7082749 L170.716025,19 L172.40649,19 L176.050869,24.9691445 L176.094777,24.9691445 L179.607432,19 L181.253989,19 L181.253989,34.7082749 L179.4318,34.7082749 L179.4318,24.2734923 Z M189.120872,19 L190.943062,19 L190.943062,33.0476858 L197.15607,33.0476858 L197.15607,29.1430575 L198.780673,29.1430575 L198.780673,34.7082749 L189.120872,34.7082749 L189.120872,19 Z M210.511477,33.4067321 C211.06765,33.4067321 211.579907,33.3356716 212.048263,33.1935484 C212.51662,33.0514252 212.915448,32.8345036 213.244761,32.542777 C213.574074,32.2510504 213.830203,31.8882677 214.013155,31.454418 C214.196106,31.0205682 214.287581,30.5119244 214.287581,29.9284712 C214.287581,28.851327 213.910706,28.0322609 213.156945,27.4712482 C212.403184,26.9102356 211.375011,26.6297335 210.072395,26.6297335 L208.00871,26.7419355 L208.00871,19 L215.538964,19 L215.538964,20.6157083 L209.655267,20.6157083 L209.655267,25.171108 L210.752972,25.1262272 C212.377583,25.1262272 213.658225,25.5301502 214.594938,26.3380084 C215.531651,27.1458666 216,28.2977952 216,29.7938289 C216,30.6316077 215.8573,31.3721333 215.571895,32.0154278 C215.286491,32.6587222 214.89498,33.2010263 214.397351,33.6423562 C213.899723,34.0836862 213.310627,34.4165487 212.630047,34.6409537 C211.949466,34.8653588 211.206694,34.9775596 210.401706,34.9775596 C209.962622,34.9775596 209.545499,34.9438994 209.150323,34.8765778 C208.755147,34.8092563 208.396567,34.7269757 208.074573,34.6297335 C207.752578,34.5324913 207.470836,34.4277705 207.22934,34.315568 C206.987844,34.2033655 206.815872,34.1023847 206.713419,34.0126227 L207.41595,32.5539972 C207.664764,32.7036006 208.045298,32.8831219 208.557563,33.0925666 C209.069827,33.3020113 209.721126,33.4067321 210.511477,33.4067321 Z" id="IloveHTML5" fill="#8A704D"></path>
            <path d="M122.288,13.776 L121.232,14.24 L115.312,1.056 L116.384,0.608 L122.288,13.776 Z M126.850857,9.84 C126.850857,9.49866496 126.717525,9.2346676 126.450857,9.048 C126.184189,8.8613324 125.853526,8.71200056 125.458857,8.6 C125.064188,8.48799944 124.634859,8.38400048 124.170857,8.288 C123.706855,8.19199952 123.277526,8.0640008 122.882857,7.904 C122.488188,7.7439992 122.157525,7.52800136 121.890857,7.256 C121.624189,6.98399864 121.490857,6.60266912 121.490857,6.112 C121.490857,5.70666464 121.578856,5.36000144 121.754857,5.072 C121.930858,4.78399856 122.162856,4.5466676 122.450857,4.36 C122.738858,4.1733324 123.074855,4.03466712 123.458857,3.944 C123.842859,3.85333288 124.242855,3.808 124.658857,3.808 C125.405527,3.808 126.048188,3.9013324 126.586857,4.088 C127.125526,4.2746676 127.554855,4.46933232 127.874857,4.672 L127.362857,5.68 C127.010855,5.48799904 126.629526,5.30400088 126.218857,5.128 C125.808188,4.95199912 125.293527,4.864 124.674857,4.864 C124.440189,4.864 124.208191,4.88799976 123.978857,4.936 C123.749523,4.98400024 123.541525,5.05599952 123.354857,5.152 C123.168189,5.24800048 123.018858,5.37333256 122.906857,5.528 C122.794856,5.68266744 122.738857,5.87199888 122.738857,6.096 C122.738857,6.37333472 122.872189,6.58666592 123.138857,6.736 C123.405525,6.88533408 123.736188,7.01066616 124.130857,7.112 C124.525526,7.21333384 124.954855,7.30933288 125.418857,7.4 C125.882859,7.49066712 126.312188,7.62133248 126.706857,7.792 C127.101526,7.96266752 127.432189,8.19199856 127.698857,8.48 C127.965525,8.76800144 128.098857,9.15733088 128.098857,9.648 C128.098857,10.3840037 127.808193,10.9919976 127.226857,11.472 C126.645521,11.9520024 125.773529,12.192 124.610857,12.192 C124.258855,12.192 123.912192,12.1600003 123.570857,12.096 C123.229522,12.0319997 122.909525,11.9466672 122.610857,11.84 C122.312189,11.7333328 122.040192,11.613334 121.794857,11.48 C121.549522,11.346666 121.346858,11.2106674 121.186857,11.072 L121.826857,10.032 C121.954858,10.1600006 122.125523,10.290666 122.338857,10.424 C122.552191,10.557334 122.786856,10.6773328 123.042857,10.784 C123.298858,10.8906672 123.573522,10.9759997 123.866857,11.04 C124.160192,11.1040003 124.456189,11.136 124.754857,11.136 C125.042858,11.136 125.312189,11.1120002 125.562857,11.064 C125.813525,11.0159998 126.034856,10.9413338 126.226857,10.84 C126.418858,10.7386662 126.570856,10.6053342 126.682857,10.44 C126.794858,10.2746658 126.850857,10.0746678 126.850857,9.84 Z M139.816571,13.776 L138.760571,14.24 L132.840571,1.056 L133.912571,0.608 L139.816571,13.776 Z M142.795428,5.76 L144.395428,10.208 L144.507428,10.208 L145.643428,4 L146.811428,4 L145.243428,12 L143.819428,12 L142.283428,7.584 L142.235428,7.584 L140.635428,12 L139.211428,12 L137.531428,4 L138.763428,4 L140.059428,10.24 L140.155428,10.24 L141.707428,5.76 L142.795428,5.76 Z M157.345142,13.776 L156.289142,14.24 L150.369142,1.056 L151.441142,0.608 L157.345142,13.776 Z M160.323999,5.76 L161.923999,10.208 L162.035999,10.208 L163.171999,4 L164.339999,4 L162.771999,12 L161.347999,12 L159.811999,7.584 L159.763999,7.584 L158.163999,12 L156.739999,12 L155.059999,4 L156.291999,4 L157.587999,10.24 L157.683999,10.24 L159.235999,5.76 L160.323999,5.76 Z M174.873713,13.776 L173.817713,14.24 L167.897713,1.056 L168.969713,0.608 L174.873713,13.776 Z M177.85257,5.76 L179.45257,10.208 L179.56457,10.208 L180.70057,4 L181.86857,4 L180.30057,12 L178.87657,12 L177.34057,7.584 L177.29257,7.584 L175.69257,12 L174.26857,12 L172.58857,4 L173.82057,4 L175.11657,10.24 L175.21257,10.24 L176.76457,5.76 L177.85257,5.76 Z M192.402284,13.776 L191.346284,14.24 L185.426284,1.056 L186.498284,0.608 L192.402284,13.776 Z M195.381141,5.76 L196.981141,10.208 L197.093141,10.208 L198.229141,4 L199.397141,4 L197.829141,12 L196.405141,12 L194.869141,7.584 L194.821141,7.584 L193.221141,12 L191.797141,12 L190.117141,4 L191.349141,4 L192.645141,10.24 L192.741141,10.24 L194.293141,5.76 L195.381141,5.76 Z M209.930855,13.776 L208.874855,14.24 L202.954855,1.056 L204.026855,0.608 L209.930855,13.776 Z M213.069712,0.8 L215.661712,0.8 L215.661712,9.264 C215.661712,9.36000048 215.667045,9.47999928 215.677712,9.624 C215.688379,9.76800072 215.701712,9.9199992 215.717712,10.08 C215.733712,10.2400008 215.752379,10.3973326 215.773712,10.552 C215.795045,10.7066674 215.816379,10.8426661 215.837712,10.96 L216.909712,10.96 L216.909712,12 L214.781712,12 L214.621712,10.768 L214.557712,10.768 C214.323044,11.1733354 213.973714,11.5119986 213.509712,11.784 C213.04571,12.0560014 212.509715,12.192 211.901712,12.192 C210.696373,12.192 209.808382,11.8533367 209.237712,11.176 C208.667042,10.4986633 208.381712,9.44534048 208.381712,8.016 C208.381712,7.34399664 208.477711,6.74933592 208.669712,6.232 C208.861713,5.71466408 209.136377,5.2826684 209.493712,4.936 C209.851047,4.5893316 210.280376,4.32533424 210.781712,4.144 C211.283048,3.96266576 211.843042,3.872 212.461712,3.872 C212.685713,3.872 212.885711,3.87733328 213.061712,3.888 C213.237713,3.89866672 213.400378,3.91466656 213.549712,3.936 C213.699046,3.95733344 213.840378,3.98666648 213.973712,4.024 C214.107046,4.06133352 214.253711,4.10133312 214.413712,4.144 L214.413712,1.872 L213.069712,1.872 L213.069712,0.8 Z M212.109712,11.12 C212.760382,11.12 213.272377,10.9520017 213.645712,10.616 C214.019047,10.2799983 214.275045,9.77600336 214.413712,9.104 L214.413712,5.392 C214.179044,5.2319992 213.915047,5.11466704 213.621712,5.04 C213.328377,4.96533296 212.941714,4.928 212.461712,4.928 C211.608374,4.928 210.936381,5.17599752 210.445712,5.672 C209.955043,6.16800248 209.709712,6.949328 209.709712,8.016 C209.709712,8.45333552 209.749712,8.86133144 209.829712,9.24 C209.909712,9.61866856 210.043044,9.94666528 210.229712,10.224 C210.41638,10.5013347 210.664377,10.7199992 210.973712,10.88 C211.283047,11.0400008 211.66171,11.12 212.109712,11.12 Z" id="\s\w\w\w\w\d" fill="#F38158"></path>
        </g>
    </g>
</svg>

<svg xmlns="http://www.w3.org/2000/svg" width="236" height="38" viewBox="0 0 236 38"><defs><style>@import url(https://fonts.googleapis.com/css?family=Open+Sans:bold,italic,bolditalic%7CPT+Mono);@font-face{font-family:&apos;PT Mono&apos;;font-weight:700;font-style:normal;src:local(&apos;PT MonoBold&apos;),url(/font/PTMonoBold.woff2) format(&apos;woff2&apos;),url(/font/PTMonoBold.woff) format(&apos;woff&apos;),url(/font/PTMonoBold.ttf) format(&apos;truetype&apos;)}</style></defs><g id="regexp" fill="none" fill-rule="evenodd" stroke="none" stroke-width="1"><g id="love-html5-classes.svg" fill-rule="nonzero"><path id="IloveHTML5" fill="#8A704D" d="M11 19h10.538v1.66h-4.369v12.388h4.369v1.66H11v-1.66h4.347V20.66H11V19zm36.788 0h3.644v11.938c0 .913.15 1.556.45 1.93.3.374.743.561 1.328.561.41 0 .802-.075 1.175-.224.373-.15.787-.404 1.24-.763l.79 1.234c-.233.21-.49.396-.768.561a5.651 5.651 0 01-1.734.673c-.293.06-.564.09-.812.09a4.554 4.554 0 01-1.45-.213 2.47 2.47 0 01-1.064-.685c-.286-.314-.501-.729-.648-1.245-.146-.516-.22-1.156-.22-1.919V20.504h-1.931V19zm16.385 10.098c0-1.81.46-3.242 1.383-4.297.922-1.055 2.24-1.582 3.952-1.582.922 0 1.716.153 2.382.46a4.683 4.683 0 011.657 1.245c.44.524.765 1.145.977 1.863a8.12 8.12 0 01.319 2.311c0 .898-.118 1.71-.352 2.435-.234.726-.578 1.343-1.032 1.851a4.558 4.558 0 01-1.68 1.178c-.665.277-1.422.416-2.271.416-.908 0-1.698-.154-2.371-.46a4.66 4.66 0 01-1.669-1.246 5.115 5.115 0 01-.977-1.862 8.12 8.12 0 01-.318-2.312zm1.822 0c0 .524.062 1.047.187 1.571.124.524.325.995.603 1.414.278.419.64.755 1.087 1.01.446.254.992.381 1.636.381 1.17 0 2.052-.37 2.645-1.11.593-.741.89-1.83.89-3.266 0-.538-.063-1.066-.187-1.582a4.226 4.226 0 00-.615-1.402 3.266 3.266 0 00-1.098-1.01c-.446-.255-.991-.382-1.635-.382-1.171 0-2.05.367-2.635 1.1-.585.733-.878 1.825-.878 3.276zm21.303 3.434h.241l3.447-9.044h1.91l-4.632 11.22h-1.932l-4.72-11.22h2.02l3.666 9.044zm22.73.763c-.264.239-.575.463-.933.673-.359.21-.75.389-1.175.538a8.46 8.46 0 01-1.328.348 7.92 7.92 0 01-1.394.124c-.878 0-1.654-.139-2.327-.416a4.48 4.48 0 01-1.69-1.189 5.213 5.213 0 01-1.033-1.851c-.234-.718-.351-1.526-.351-2.424 0-.942.128-1.78.384-2.513.256-.733.626-1.347 1.109-1.84a4.816 4.816 0 011.756-1.133c.688-.262 1.456-.393 2.305-.393a6.86 6.86 0 011.823.247c.6.164 1.13.475 1.591.93.461.457.816 1.086 1.065 1.886.249.8.337 1.836.263 3.108h-8.496c0 1.346.355 2.352 1.065 3.018.71.666 1.658.999 2.843.999.395 0 .787-.049 1.175-.146a9.656 9.656 0 001.108-.348c.352-.135.663-.284.933-.449.271-.164.48-.314.626-.449l.68 1.28zm-4.633-8.595c-.483 0-.94.052-1.372.157-.432.105-.812.28-1.141.527-.33.247-.6.569-.813.965-.212.397-.347.887-.406 1.47h6.828c-.073-.987-.384-1.754-.933-2.3-.55-.546-1.27-.82-2.163-.82zm38.544 2.805h-6.893v7.203h-1.822V19h1.822v6.844h6.893V19h1.823v15.708h-1.823v-7.203zM152.531 19h11.416v4.107h-1.625V20.66h-3.183v12.387h2.415v1.66h-6.652v-1.66h2.415V20.66h-3.162v2.446h-1.624V19zm26.9 5.273l.22-2.131h-.11l-1.053 1.93-2.24 3.837h-.548l-2.35-3.86-1.01-1.907h-.11l.264 2.11v10.456h-1.778V19h1.69l3.645 5.97h.044l3.512-5.97h1.647v15.708h-1.822V24.273zm9.69-5.273h1.822v14.048h6.213v-3.905h1.625v5.565h-9.66V19zm21.39 14.407c.557 0 1.069-.071 1.537-.213a3.16 3.16 0 001.197-.651c.33-.292.585-.655.768-1.089.183-.433.275-.942.275-1.526 0-1.077-.377-1.896-1.131-2.457-.754-.56-1.782-.841-3.085-.841l-2.063.112V19h7.53v1.616h-5.884v4.555l1.098-.045c1.625 0 2.905.404 3.842 1.212.937.808 1.405 1.96 1.405 3.456 0 .838-.143 1.578-.428 2.221a4.677 4.677 0 01-1.175 1.627 4.976 4.976 0 01-1.767.999 7.079 7.079 0 01-2.228.337c-.44 0-.857-.034-1.252-.101a8.91 8.91 0 01-1.075-.247 6.429 6.429 0 01-.846-.314c-.241-.113-.413-.214-.516-.303l.703-1.459c.249.15.63.33 1.142.539.512.209 1.163.314 1.953.314z"/><path id="\s\w\w\w\w\d" fill="#F38158" d="M122.288 13.776l-1.056.464-5.92-13.184 1.072-.448 5.904 13.168zm4.563-3.936c0-.341-.133-.605-.4-.792a3.282 3.282 0 00-.992-.448 18.35 18.35 0 00-1.288-.312 7.43 7.43 0 01-1.288-.384 2.886 2.886 0 01-.992-.648c-.267-.272-.4-.653-.4-1.144 0-.405.088-.752.264-1.04.176-.288.408-.525.696-.712a3.181 3.181 0 011.008-.416c.384-.09.784-.136 1.2-.136.747 0 1.39.093 1.928.28.539.187.968.381 1.288.584l-.512 1.008a13.475 13.475 0 00-1.144-.552c-.41-.176-.925-.264-1.544-.264-.235 0-.467.024-.696.072a2.46 2.46 0 00-.624.216 1.244 1.244 0 00-.448.376.943.943 0 00-.168.568c0 .277.133.49.4.64.267.15.597.275.992.376.395.101.824.197 1.288.288.464.09.893.221 1.288.392.395.17.725.4.992.688.267.288.4.677.4 1.168 0 .736-.29 1.344-.872 1.824-.581.48-1.453.72-2.616.72-.352 0-.699-.032-1.04-.096a6.308 6.308 0 01-.96-.256 5.776 5.776 0 01-.816-.36 3.431 3.431 0 01-.608-.408l.64-1.04c.128.128.299.259.512.392a4.833 4.833 0 001.528.616 4.296 4.296 0 001.696.024c.25-.048.472-.123.664-.224.192-.101.344-.235.456-.4.112-.165.168-.365.168-.6zm12.966 3.936l-1.056.464-5.92-13.184 1.072-.448 5.904 13.168zm2.978-8.016l1.6 4.448h.112L145.643 4h1.168l-1.568 8h-1.424l-1.536-4.416h-.048l-1.6 4.416h-1.424l-1.68-8h1.232l1.296 6.24h.096l1.552-4.48h1.088zm14.55 8.016l-1.056.464-5.92-13.184 1.072-.448 5.904 13.168zm2.979-8.016l1.6 4.448h.112L163.172 4h1.168l-1.568 8h-1.424l-1.536-4.416h-.048l-1.6 4.416h-1.424l-1.68-8h1.232l1.296 6.24h.096l1.552-4.48h1.088zm14.55 8.016l-1.056.464-5.92-13.184 1.072-.448 5.904 13.168zm2.979-8.016l1.6 4.448h.112L180.7 4h1.168l-1.568 8h-1.424l-1.536-4.416h-.048l-1.6 4.416h-1.424l-1.68-8h1.232l1.296 6.24h.096l1.552-4.48h1.088zm14.55 8.016l-1.057.464-5.92-13.184 1.072-.448 5.904 13.168zm2.978-8.016l1.6 4.448h.112L198.23 4h1.168l-1.568 8h-1.424l-1.536-4.416h-.048l-1.6 4.416h-1.424l-1.68-8h1.232l1.296 6.24h.096l1.552-4.48h1.088zm14.55 8.016l-1.056.464-5.92-13.184 1.072-.448 5.904 13.168zM213.07.8h2.592v8.464c0 .096.005.216.016.36a17.83 17.83 0 00.096.928c.021.155.042.29.064.408h1.072V12h-2.128l-.16-1.232h-.064c-.235.405-.584.744-1.048 1.016-.464.272-1 .408-1.608.408-1.206 0-2.094-.339-2.664-1.016-.571-.677-.856-1.73-.856-3.16 0-.672.096-1.267.288-1.784.192-.517.466-.95.824-1.296.357-.347.786-.61 1.288-.792a4.912 4.912 0 011.68-.272c.224 0 .424.005.6.016.176.01.338.027.488.048.149.021.29.05.424.088l.44.12V1.872h-1.344V.8zm-.96 10.32c.65 0 1.162-.168 1.536-.504.373-.336.629-.84.768-1.512V5.392a2.478 2.478 0 00-.792-.352c-.294-.075-.68-.112-1.16-.112-.854 0-1.526.248-2.016.744-.491.496-.736 1.277-.736 2.344 0 .437.04.845.12 1.224.08.379.213.707.4.984.186.277.434.496.744.656.309.16.688.24 1.136.24z"/></g></g></svg>
